X:1
T:Title
L:1/8
Q:1/4=80
M:6/8
K:C
V:1 treble nm="Church Organ, Staff"
V:1
 G c2- c/ z/ BG | A G2 z3 | G c2- c/ z/ BG | A G2- G/ z/ z G | F E2- E/ z/ F2 | E D2- D/ z/ .C2 | %6
w: By~Normandie~Carol * * * *||||||
 G c2- c/ z/ de | c d2- d/ z/ z z | G c2- c/ z/ de | d c2- c/ z/ G2 | z cB A e2 | d c2- c/ z/ z z | %12
w: ||||||
 z6 | G c2- c/ z/ BG | A G2 z3 | G c2- c/ z/ BG | A G2- G/ z/ z G | F E2- E/ z/ F2 | %18
w: ||||||
 E D2- D/ z/ C2 | G c2- c/ z/ de | c d2- d/ z/ z z | G c2- c/ z/ de | d c2- c/ z/ G2 | z cB A e2 | %24
w: ||||||
 d c2- c c2- | c3 z3 |] %26
w: ||

